X:2034
T:Brae Riach
S:W. Ross book 3
M:6/8
L:1/8
K:EDor
% dorian/minor/phrygian pentatonic, E-mode CF-gap,
% until the last line fills the C gap
e|:GG<G BGB|BdB BAB|GG<G BGB|AA<A e2d |
   GG<G BGB|BdB BGB|edB  dGB|AA<A e2d:|
   GG<G g2e|dBd BAB|GG<G g2e|dBd  e2d |
[1 GG<G g2e|dBd BGB|edB  dGB|AA<A e2d:|
[2 GG<G g2a|geg dBd|edB  BdB|AA<A e2d||
   GG<G BGB|BdB BGB|BdB  BGB|BdB  e2d |
   GG<G BGB|BdB BGB|edB  dGB|AA<A e2d:|
   GG<G g2a|geg dBd|GG<G g2e|dBd  e2d |
[1 GG<G g2a|geg dBd|edB  BdB|A<AA e2d:|
[2 GG<G g2a|ecA dBG|ecA  dBG|A<AA e2d|]
